X:374
T: WAT SCHWEMMT OP USEN DUIKE
N: E1560
O: Europa, Mitteleuropa, Deutschland, Westfalen, Soest
R: Staende -, Bauern - Lied, Flachsbrechen, bei der Arbeit
M: 3/8
L: 1/16
K: Bb
F2 | B2B2cA | B2B2F2 | B4
B2 | e2e2c2 | d2d2B2 | c4A2 | B4
F2 | B2B2B2 | BGF2F2 | B4c2 | B4
F2 | e2e2c2 | d2d2B2 | c4A2 | B4

